app/images/grid__icon_shopping.svg

<svg width="63" height="63" viewBox="0 0 63 63" fill="none" xmlns="http://www.w3.org/2000/svg">
<g clip-path="url(#clip0)">
<path d="M62.3029 13.5031C62.8937 14.227 63.1227 15.1674 62.9354 16.0817L58.6075 37.0826C58.3137 38.515 57.039 39.5529 55.5788 39.5529H17.3236L18.2346 43.9721H55.2913C56.1467 43.9721 56.8381 44.6651 56.8381 45.5189C56.8381 46.3727 56.1467 47.0657 55.2913 47.0657H18.2346C16.7729 47.0657 15.4999 46.0278 15.2045 44.5971L7.71952 8.26562L0.930527 5.31742C0.146349 4.97867 -0.212579 4.06763 0.127769 3.28333C0.468117 2.49903 1.37916 2.14022 2.16186 2.48057L8.95232 5.42717C9.87419 5.82781 10.547 6.6553 10.7497 7.64066L11.7226 12.3646H59.9054C60.8381 12.3647 61.7136 12.7792 62.3029 13.5031ZM55.579 36.4591L59.9054 15.4582H12.3599L16.6863 36.4591H55.579Z" fill="#02133C"/>
<path d="M59.9054 15.458L55.579 36.4589H16.6863L12.3599 15.458H59.9054V15.458ZM48.7608 21.9421C48.7608 21.0883 48.0694 20.3953 47.214 20.3953H25.0483C24.1929 20.3953 23.5015 21.0883 23.5015 21.9421C23.5015 22.7959 24.1929 23.4889 25.0483 23.4889H47.214C48.0694 23.4889 48.7608 22.7959 48.7608 21.9421ZM47.5543 29.9747C47.5543 29.1209 46.8629 28.4279 46.0075 28.4279H26.2549C25.3995 28.4279 24.7081 29.1209 24.7081 29.9747C24.7081 30.8285 25.3995 31.5215 26.2549 31.5215H46.0075C46.8628 31.5214 47.5543 30.8285 47.5543 29.9747Z" fill="#C40B0B"/>
<path d="M45.8502 49.5667C48.9067 49.5667 51.3909 52.0523 51.3909 55.1073C51.3909 58.1622 48.9067 60.648 45.8502 60.648C42.7954 60.648 40.3096 58.1623 40.3096 55.1073C40.3096 52.0524 42.7952 49.5667 45.8502 49.5667Z" fill="#02133C"/>
<path d="M47.2144 20.3958C48.0699 20.3958 48.7613 21.0888 48.7613 21.9426C48.7613 22.7964 48.0699 23.4894 47.2144 23.4894H25.0488C24.1934 23.4894 23.502 22.7964 23.502 21.9426C23.502 21.0888 24.1934 20.3958 25.0488 20.3958H47.2144Z" fill="#02133C"/>
<path d="M46.0082 28.428C46.8636 28.428 47.555 29.121 47.555 29.9748C47.555 30.8286 46.8636 31.5216 46.0082 31.5216H26.2556C25.4001 31.5216 24.7087 30.8286 24.7087 29.9748C24.7087 29.121 25.4001 28.428 26.2556 28.428H46.0082V28.428Z" fill="#02133C"/>
<path d="M26.4164 49.5664C29.4713 49.5664 31.9571 52.0521 31.9571 55.1071C31.9571 58.162 29.4714 60.6478 26.4164 60.6478C23.3614 60.6478 20.8757 58.1621 20.8757 55.1071C20.8757 52.0522 23.3615 49.5664 26.4164 49.5664Z" fill="#02133C"/>
</g>
<defs>
<clipPath id="clip0">
<rect width="63" height="63" fill="white"/>
</clipPath>
</defs>
</svg>

<svg width="63" height="63" fill="none" xmlns="http://www.w3.org/2000/svg"><g clip-path="url(#clip0)"><path d="M62.303 13.503c.59.724.82 1.664.632 2.579l-4.328 21a3.103 3.103 0 01-3.028 2.47H17.324l.91 4.42h37.057a1.546 1.546 0 110 3.094H18.235a3.105 3.105 0 01-3.03-2.469L7.72 8.266.93 5.317A1.546 1.546 0 112.162 2.48l6.791 2.947a3.098 3.098 0 011.798 2.214l.973 4.724h48.182a3.08 3.08 0 012.398 1.138zM55.579 36.46l4.326-21H12.36l4.326 21H55.58z" fill="#02133C"/><path d="M59.905 15.458l-4.326 21H16.686l-4.326-21h47.545zm-11.144 6.484c0-.854-.692-1.547-1.547-1.547H25.048a1.546 1.546 0 100 3.094h22.166c.855 0 1.547-.693 1.547-1.547zm-1.207 8.033c0-.854-.691-1.547-1.547-1.547H26.256a1.546 1.546 0 100 3.093h19.753c.855 0 1.546-.693 1.546-1.546z" fill="#C40B0B"/><path d="M45.85 49.567a5.546 5.546 0 015.54 5.54 5.546 5.546 0 01-5.54 5.541 5.547 5.547 0 01-5.54-5.54 5.547 5.547 0 015.54-5.541zm1.364-29.171a1.546 1.546 0 110 3.093H25.05a1.546 1.546 0 110-3.093h22.165zm-1.206 8.032a1.546 1.546 0 110 3.094H26.256a1.546 1.546 0 110-3.094h19.752zM26.416 49.566a5.547 5.547 0 015.541 5.541 5.547 5.547 0 01-5.54 5.54 5.547 5.547 0 01-5.541-5.54 5.547 5.547 0 015.54-5.54z" fill="#02133C"/></g><defs><clipPath id="clip0"><path fill="#fff" d="M0 0h63v63H0z"/></clipPath></defs></svg>
